image/02/Associates/Blackrock.svg

<svg xmlns="http://www.w3.org/2000/svg" fill="none" viewBox="0 0 206 48" height="48" width="206">
<path fill="black" d="M29.1993 37.4659V10H35.4705V37.4659H29.1993ZM151.104 27.2044C151.104 20.5668 145.942 16.4469 139.9 16.4469C133.82 16.4469 128.696 20.6049 128.696 27.2044C128.696 33.842 133.859 38 139.9 38C145.942 38 151.104 33.8038 151.104 27.2044ZM144.91 27.2044C144.91 30.6757 142.577 32.6213 139.862 32.6213C137.147 32.6213 134.815 30.6757 134.815 27.2044C134.815 23.6948 137.147 21.8256 139.862 21.8256C142.577 21.8256 144.91 23.6948 144.91 27.2044ZM26.6756 29.5695C26.6756 26.4796 25.0695 24.1144 22.2016 23.0463C24.9166 21.5586 25.8725 19.6131 25.8725 17.3243C25.8725 13.3188 22.9664 10 16.4658 10.0381H4V37.5041H17.0012C23.54 37.4659 26.6756 34.2234 26.6756 29.5695ZM19.219 18.1253C19.219 19.9946 18.0336 21.0627 15.7393 21.0627H10.5388V15.3406H15.7393C17.8424 15.3406 19.219 16.2561 19.219 18.1253ZM19.7926 29.1499C19.7926 30.9428 18.5307 32.1253 16.1981 32.1253H10.5388V26.1744H16.1981C18.4542 26.1744 19.7926 27.3188 19.7926 29.1499ZM81.2804 22.0545C79.5597 18.4687 76.3476 16.485 71.4913 16.485C65.7555 16.485 60.6315 20.0708 60.6315 27.2044C60.6315 34.1471 65.1437 38 71.4148 38C75.8123 38 79.5214 36.2452 81.2804 32.4687L76.2329 29.8747C75.3152 31.5531 73.9003 32.6213 71.6443 32.6213C68.7381 32.6213 66.8644 30.5613 66.8644 27.2044C66.8644 23.8474 69.0058 21.8256 71.606 21.8256C73.6327 21.8256 75.1622 22.7411 76.1182 24.7248L81.2804 22.0545ZM173.703 22.0545C171.983 18.4687 168.771 16.485 163.914 16.485C158.178 16.485 153.054 20.0708 153.054 27.2044C153.054 34.1471 157.567 38 163.838 38C168.235 38 171.944 36.2452 173.703 32.4687L168.656 29.8747C167.738 31.5531 166.323 32.6213 164.067 32.6213C161.161 32.6213 159.287 30.5613 159.287 27.2044C159.287 23.8474 161.429 21.8256 164.029 21.8256C166.056 21.8256 167.585 22.7411 168.541 24.7248L173.703 22.0545ZM121.125 37.4659L115.886 28.2343H111.871V37.4659H105.409V10H117.072C123.381 10 127.779 13.0136 127.779 18.9264C127.779 22.703 125.905 25.3733 122.578 27.0136L128.62 37.4659H121.125ZM111.91 22.7793H116.728C119.71 22.7793 121.163 21.1008 121.163 19.1172C121.163 16.752 119.787 15.455 116.728 15.455H111.91V22.7793ZM59.5991 37.1226V32.812C59.3314 32.8883 58.949 32.9646 58.5284 32.9646C57.7254 32.9646 57.3047 32.545 57.3047 31.8202V24.6866C57.3047 19.3461 53.7103 16.5232 47.7833 16.5232C43.9212 16.5232 40.6327 17.9346 38.5678 19.7657L42.0475 23.6567C43.4241 22.436 45.2596 21.673 47.0568 21.673C49.81 21.673 51.1101 23.0463 51.1101 25.297V25.9455C49.81 25.6403 48.1657 25.3351 46.1773 25.3351C41.168 25.3351 37.9177 27.7384 37.9177 31.7057C37.9177 35.7875 40.6327 37.9237 44.8389 37.9237C47.7068 37.9237 50.2688 36.7411 51.6072 35.2153C52.4102 37.2371 54.1692 37.7711 55.8899 37.7711C57.0753 37.8093 58.4519 37.6185 59.5991 37.1226ZM51.1483 30.6758C51.1483 32.545 49.3511 33.7657 47.2862 33.7657C45.336 33.7657 44.3801 32.7738 44.3801 31.4005C44.3801 29.951 45.4508 28.8828 47.6304 28.8828C48.9687 28.8828 50.1541 29.1117 51.1483 29.3406V30.6758ZM196.111 37.4659L188.731 24.6866L195.652 17.1717H188.693L181.389 25.2589V10.0381H175.156V37.5041H181.389V32.545L184.372 29.3787L189.037 37.5041H196.111V37.4659ZM103.765 37.4659L96.3847 24.6866L103.306 17.1717H96.27L89.0429 25.2589V10.0381H82.81V37.5041H89.0429V32.545L92.0255 29.3787L96.6906 37.5041H103.765V37.4659ZM199.935 33.6512C201.235 33.6512 202 34.4523 202 35.673C202 36.8937 201.235 37.6948 199.935 37.6948C198.635 37.6948 197.87 36.8937 197.87 35.673C197.87 34.4523 198.635 33.6512 199.935 33.6512ZM199.935 37.4278C200.968 37.4278 201.656 36.8174 201.656 35.673C201.656 34.5286 200.929 33.9183 199.935 33.9183C198.903 33.9183 198.214 34.5286 198.214 35.673C198.176 36.8556 198.903 37.4278 199.935 37.4278ZM199.132 34.6431H199.973C200.47 34.6431 200.738 34.9101 200.738 35.2916C200.738 35.6349 200.585 35.8256 200.317 35.9401L200.7 36.6649H200.317L199.973 36.0163H199.514V36.6649H199.132V34.6431ZM199.514 34.9482V35.673H199.935C200.203 35.673 200.356 35.5967 200.356 35.3297C200.356 35.1008 200.241 34.9864 199.973 34.9864H199.514V34.9482Z"></path>
</svg>

<?xml version="1.0" encoding="utf-8"?>
<!-- Generator: Adobe Illustrator 23.0.6, SVG Export Plug-In . SVG Version: 6.00 Build 0)  -->
<svg version="1.1" id="Layer_1" xmlns="http://www.w3.org/2000/svg" xmlns:xlink="http://www.w3.org/1999/xlink" x="0px" y="0px"
	 viewBox="0 0 206 48" style="enable-background:new 0 0 206 48;" xml:space="preserve">
<style type="text/css">
	.st0{fill:#FFFFFF;}
</style>
<path class="st0" d="M29.2,37.5V10h6.3v27.5H29.2z M151.1,27.2c0-6.6-5.2-10.8-11.2-10.8c-6.1,0-11.2,4.2-11.2,10.8
	c0,6.6,5.2,10.8,11.2,10.8C145.9,38,151.1,33.8,151.1,27.2z M144.9,27.2c0,3.5-2.3,5.4-5,5.4s-5-1.9-5-5.4c0-3.5,2.3-5.4,5-5.4
	S144.9,23.7,144.9,27.2z M26.7,29.6c0-3.1-1.6-5.5-4.5-6.5c2.7-1.5,3.7-3.4,3.7-5.7c0-4-2.9-7.3-9.4-7.3H4v27.5h13
	C23.5,37.5,26.7,34.2,26.7,29.6z M19.2,18.1c0,1.9-1.2,2.9-3.5,2.9h-5.2v-5.7h5.2C17.8,15.3,19.2,16.3,19.2,18.1z M19.8,29.1
	c0,1.8-1.3,3-3.6,3h-5.7v-6h5.7C18.5,26.2,19.8,27.3,19.8,29.1z M81.3,22.1c-1.7-3.6-4.9-5.6-9.8-5.6c-5.7,0-10.9,3.6-10.9,10.7
	c0,6.9,4.5,10.8,10.8,10.8c4.4,0,8.1-1.8,9.9-5.5l-5-2.6c-0.9,1.7-2.3,2.7-4.6,2.7c-2.9,0-4.8-2.1-4.8-5.4c0-3.4,2.1-5.4,4.7-5.4
	c2,0,3.6,0.9,4.5,2.9L81.3,22.1z M173.7,22.1c-1.7-3.6-4.9-5.6-9.8-5.6c-5.7,0-10.9,3.6-10.9,10.7c0,6.9,4.5,10.8,10.8,10.8
	c4.4,0,8.1-1.8,9.9-5.5l-5-2.6c-0.9,1.7-2.3,2.7-4.6,2.7c-2.9,0-4.8-2.1-4.8-5.4c0-3.4,2.1-5.4,4.7-5.4c2,0,3.6,0.9,4.5,2.9
	L173.7,22.1z M121.1,37.5l-5.2-9.2h-4v9.2h-6.5V10h11.7c6.3,0,10.7,3,10.7,8.9c0,3.8-1.9,6.4-5.2,8.1l6,10.5H121.1z M111.9,22.8h4.8
	c3,0,4.4-1.7,4.4-3.7c0-2.4-1.4-3.7-4.4-3.7h-4.8V22.8z M59.6,37.1v-4.3c-0.3,0.1-0.7,0.2-1.1,0.2c-0.8,0-1.2-0.4-1.2-1.1v-7.1
	c0-5.3-3.6-8.2-9.5-8.2c-3.9,0-7.2,1.4-9.2,3.2l3.5,3.9c1.4-1.2,3.2-2,5-2c2.8,0,4.1,1.4,4.1,3.6v0.6c-1.3-0.3-2.9-0.6-4.9-0.6
	c-5,0-8.3,2.4-8.3,6.4c0,4.1,2.7,6.2,6.9,6.2c2.9,0,5.4-1.2,6.8-2.7c0.8,2,2.6,2.6,4.3,2.6C57.1,37.8,58.5,37.6,59.6,37.1z
	 M51.1,30.7c0,1.9-1.8,3.1-3.9,3.1c-2,0-2.9-1-2.9-2.4c0-1.4,1.1-2.5,3.3-2.5c1.3,0,2.5,0.2,3.5,0.5V30.7z M196.1,37.5l-7.4-12.8
	l6.9-7.5h-7l-7.3,8.1V10h-6.2v27.5h6.2v-5l3-3.2l4.7,8.1L196.1,37.5L196.1,37.5z M103.8,37.5l-7.4-12.8l6.9-7.5h-7L89,25.3V10h-6.2
	v27.5H89v-5l3-3.2l4.7,8.1L103.8,37.5L103.8,37.5z M199.9,33.7c1.3,0,2.1,0.8,2.1,2s-0.8,2-2.1,2s-2.1-0.8-2.1-2
	S198.6,33.7,199.9,33.7z M199.9,37.4c1,0,1.7-0.6,1.7-1.8s-0.7-1.8-1.7-1.8c-1,0-1.7,0.6-1.7,1.8C198.2,36.9,198.9,37.4,199.9,37.4z
	 M199.1,34.6h0.8c0.5,0,0.8,0.3,0.8,0.6c0,0.3-0.2,0.5-0.4,0.6l0.4,0.7h-0.4L200,36h-0.5v0.6h-0.4V34.6z M199.5,34.9v0.7h0.4
	c0.3,0,0.4-0.1,0.4-0.3c0-0.2-0.1-0.3-0.4-0.3L199.5,34.9L199.5,34.9z"/>
</svg>
